X:349
T: Comin Thro' the Broom My Jo
N: O'Farrell's Pocket Companion v.4 (Sky ed. p.151)
N: "Scotch"
M: C
L: 1/8
Q: 200
R: march
K: Am
G2| E2A2A2G2| A2B2e4| d3e g2B2| A2G2 E4|
G3A B2A2| G2A2 B4| D4 EDEG| B2A2A2 :|
ze| a3b a2e2| a3b a2e2| g3a b2a2| g2e2d2 e^f|
g2e2g2B2| d2e2 g4| e4 d2B2| B2A2A2 :|
